modules/hawcons-stroke/icons/file-pages.svg

<?xml version="1.0" encoding="UTF-8" standalone="no"?>
<svg width="32px" height="32px" viewBox="0 0 32 32" version="1.1" xmlns="http://www.w3.org/2000/svg" xmlns:xlink="http://www.w3.org/1999/xlink" xmlns:sketch="http://www.bohemiancoding.com/sketch/ns">
    <!-- Generator: Sketch 3.0.3 (7891) - http://www.bohemiancoding.com/sketch -->
    <title>icon 2 file pages</title>
    <desc>Created with Sketch.</desc>
    <defs></defs>
    <g id="Page-1" stroke="none" stroke-width="1" fill="none" fill-rule="evenodd" sketch:type="MSPage">
        <g id="icon-2-file-pages" sketch:type="MSArtboardGroup" fill="#929292">
            <path d="M18,17 L18,19 L15.9998075,19 C15.4437166,19 15,18.5523709 15,18.0001925 L15,14.9998075 C15,14.4437166 15.4476291,14 15.9998075,14 L19,14 L19,13 L16.0048815,13 C14.897616,13 14,13.8865548 14,15.0059191 L14,17.9940809 C14,19.1019194 14.8938998,20 16.0048815,20 L19,20 L19,19.25 L19,19.25 L19,17 L19,16 L16,16 L16,17 L18,17 L18,17 Z M8,15 L8,20 L9,20 L9,17 L10.9951185,17 C12.102384,17 13,16.1122704 13,15 C13,13.8954305 12.1061002,13 10.9951185,13 L8,13 L8,15 L8,15 Z M8.00684834,10 C6.34621185,10 5,11.3422643 5,12.9987856 L5,20.0012144 C5,21.6573979 6.33599155,23 8.00684834,23 L24.9931517,23 C26.6537881,23 28,21.6577357 28,20.0012144 L28,12.9987856 C28,11.3426021 26.6640085,10 24.9931517,10 L8.00684834,10 L8.00684834,10 Z M7.99456145,11 C6.89299558,11 6,11.9001762 6,12.992017 L6,20.007983 C6,21.1081436 6.90234375,22 7.99456145,22 L25.0054385,22 C26.1070044,22 27,21.0998238 27,20.007983 L27,12.992017 C27,11.8918564 26.0976562,11 25.0054385,11 L7.99456145,11 L7.99456145,11 Z M9,14 L9,16 L11.0010434,16 C11.5527519,16 12,15.5561352 12,15 C12,14.4477153 11.5573397,14 11.0010434,14 L9,14 L9,14 Z M22.0048815,13 C20.897616,13 20,13.8877296 20,15 C20,16.1045695 20.8877296,17 22,17 L22.9906311,17 C23.5480902,17 24,17.4438648 24,18 C24,18.5522847 23.5573397,19 23.0010434,19 L21.9989566,19 C21.4472481,19 21,18.543716 21,18.0044713 L21,17.9931641 L20,17.9931641 L20,17.998921 C20,19.1040864 20.8938998,20 22.0048815,20 L22.9951185,20 C24.102384,20 25,19.1122704 25,18 C25,16.8954305 24.1122704,16 23,16 L22.0093689,16 C21.4519098,16 21,15.5561352 21,15 C21,14.4477153 21.4426603,14 21.9989566,14 L23.0010434,14 C23.5527519,14 24,14.453186 24,15 L25,15 C25,13.8954305 24.1061002,13 22.9951185,13 L22.0048815,13 L22.0048815,13 Z" id="file-pages" sketch:type="MSShapeGroup"></path>
        </g>
    </g>
</svg>

<svg width="32" height="32" xmlns="http://www.w3.org/2000/svg"><path d="M18 17v2h-2c-.556 0-1-.448-1-1v-3c0-.556.448-1 1-1h3v-1h-2.995A1.998 1.998 0 0 0 14 15.006v2.988c0 1.108.894 2.006 2.005 2.006H19v-4h-3v1h2zM8 15v5h1v-3h1.995a2 2 0 0 0 0-4H8v2zm.007-5A3.003 3.003 0 0 0 5 12.999V20A2.996 2.996 0 0 0 8.007 23h16.986A3.003 3.003 0 0 0 28 20.001V13A2.996 2.996 0 0 0 24.993 10H8.007zm-.012 1C6.893 11 6 11.9 6 12.992v7.016A2 2 0 0 0 7.995 22h17.01C26.107 22 27 21.1 27 20.008v-7.016A2 2 0 0 0 25.005 11H7.995zM9 14v2h2.001A.997.997 0 0 0 12 15c0-.552-.443-1-.999-1H9zm13.005-1A1.998 1.998 0 0 0 20 15c0 1.105.888 2 2 2h.99c.558 0 1.01.444 1.01 1 0 .552-.443 1-.999 1h-1.002c-.552 0-.999-.456-.999-.996v-.01h-1v.005A2 2 0 0 0 22.005 20h.99A1.998 1.998 0 0 0 25 18c0-1.105-.888-2-2-2h-.99c-.558 0-1.01-.444-1.01-1 0-.552.443-1 .999-1h1.002c.552 0 .999.453.999 1h1a2 2 0 0 0-2.005-2h-.99z" fill="#929292" fill-rule="evenodd"/></svg>
